X:3
T:Steirer fr zwei Seitelpfeifen
C:Trad.
N:von Raimund Zoder und Rudolf Preiss
I:140
M:3/4
L:1/8
K:D
[FA][Ad] [df][fa] [FA][fa] | [c2e2] [EA][Ac] [c2e2] | [EA][Ac] [ce][ea] [EA][ea] | [d2f2] [FA][Ad] [d2f2] | [FA][Ad] [df][fa] [FA][fa] | [c2e2] [EA][Ac] [c2e2] | [EA][Ac] [ce][ea] [EA][ea] | [d4f4] z2 ||
